X: 138
T: No_94_Song_for_North_Stake_of_Drum.krn
N: Derived from No_94_Song_for_North_Stake_of_Drum.krn
%%abc-version 2.0
%%abcx-abcm2ps-target-version 5.9.1 (29 Sep 2008)
%%abc-creator hum2abc beta
%%abcx-conversion-date 2019/03/15 08:35:45
%%humdrum-veritas 3157518531
%%humdrum-veritas-data 2578788381
%%linebreak <none>
%%barnumbers 0
L: 1/8
M: 2/4
K: B clef=bass
[K:clef=bass][M:2/4]C3/C/ (3DB,B, | 
B,3/B,/ B, z | 
C3/C/ (3DB,B, | 
B,3/B,/B,2 ]|:  
(3CB,B, B,3/B,/ | 
(3B,F,F,G,2 | 
(3F,D,D, B,,3/B,,/ | 
B,,3z ||  
[M:3/4](3E,E,D, B,,3/B,,/B,,2 ||  
[M:2/4](3C,B,,B,, B,,3/B,,/ | 
B,, z B,,B,, ||  
[M:3/4]B,,4B,, z | 
[M:2/4]B,B,B,2 :|]  



